!!!COM: Frescobaldi, Girolamo
!!!CDT: 1583///-1643
!!!ONM: No. 37
!!!OTL: No. 37: Canzon Terza &agrave; 4. Canto, Alto, Tenore, Basso
!!!OPR: Canzoni da sonare a una, due, tre et quattro, libro primo
!!!PPP: Venezia
!!!PDT: 1634
!!!URL: http://icking-music-archive.org/ByComposer/Frescobaldi.html
!!!ONB: Andrea Friggi, ed.
**kern	**kern	**kern	**kern	**kern
!Basso ad Organo	!Basso	!Tenore	!Alto	!Soprano
*staff5	*staff4	*staff3	*staff2	*staff1
*Icello	*Icello	*Iviola	*Ivioln	*Ivioln
*clefF4	*clefF4	*clefC3	*clefG2	*clefG2
*k[b-]	*k[b-]	*k[b-]	*k[b-]	*k[b-]
*M3/1	*M3/1	*M3/1	*M3/1	*M3/1
*MM240	*MM240	*MM240	*MM240	*MM240
=1-	=1-	=1-	=1-	=1-
1.F	1.F	0A	0f	1.cc
2E\	2E\	.	.	2cc\
1D	1D	1A	1f	1dd
=2	=2	=2	=2	=2
1.A	1.A	1.c	1e	1ee
.	.	.	1.a	1cc
2G\	2G\	2B-/	.	.
1F	1F	1A	.	[1ff
.	.	.	2g/	.
=3	=3	=3	=3	=3
1.B-	1.B-	1.d	1f	2ff\]
.	.	.	.	2ee\
.	.	.	1.g	1dd
2A\	2A\	2c\	.	.
1G	1G	1B-	.	[1ee
.	.	.	2f/	.
=4	=4	=4	=4	=4
1.A	1.A	1.c	1e	2ee\]
.	.	.	.	2dd\
.	.	.	1.f	1cc
2G\	2G\	2B-/	.	.
1F	1F	1A	.	[1dd
.	.	.	2e/	.
=5	=5	=5	=5	=5
1.G	1.G	1B-	1d	2dd\]
.	.	.	.	2cc\
.	.	1G	1g	1b-
2F\	2F\	.	.	.
1E	1E	[1c	1g	1cc
=6	=6	=6	=6	=6
0F	0F	2c\]	1c	0.a
.	.	2B-/	.	.
.	.	2A/	1.f	.
.	.	2B-/	.	.
1AA	1AA	1c	.	.
.	.	.	2e/	.
=7	=7	=7	=7	=7
0BB-	0BB-	1.B-	2d/	0g
.	.	.	2e/	.
.	.	.	1.f	.
.	.	2A/	.	.
1C	1C	1G	.	1g
.	.	.	2e/	.
=8	=8	=8	=8	=8
*met(C)	*met(C)	*met(C)	*met(C)	*met(C)
*M4/4	*M4/4	*M4/4	*M4/4	*M4/4
1FF	1FF	1F	1f	1a
=9	=9	=9	=9	=9
4.F\	4.F\	4.A/	4c/	1r
.	.	.	4f/	.
8D\	8D\	8A/	.	.
4.G\	4.G\	8B-/L	4d/	.
.	.	8d/	.	.
.	.	8c/	[4g/	.
8G\	8G\	8B-/J	.	.
=10	=10	=10	=10	=10
4E\	4E\	4.c\	8g/L]	4r
.	.	.	8e/J	.
4.F\	4.F\	.	4.a/	4cc\
.	.	8A/	.	.
.	.	2d\	.	4.ff\
8D\	8D\	.	8a/	.
[4B-\	[4B-\	.	4f/	.
.	.	.	.	8ee\
=11	=11	=11	=11	=11
8B-\L]	8B-\L]	4r	2g/	4.dd\
8A\J	8A\J	.	.	.
4G\	4G\	4G/	.	.
.	.	.	.	8b-\
4E-\	4E-\	4c\	4r	4ee-\
[4F\	[4F\	4A/	4c/	[4cc\
=12	=12	=12	=12	=12
8F\L]	8F\L]	4.d\	4f/	4cc\]
8D\J	8D\J	.	.	.
4G\	4G\	.	4d/	4bn\
.	.	8d\	.	.
2C/	2C/	2c\	4.e/	2cc\
.	.	.	8e/	.
=13	=13	=13	=13	=13
2FF/	2r	1r	8f/L	4.a/
.	.	.	8a/	.
.	.	.	8g/	.
.	.	.	8f/J	8a/
4GG/	4r	.	4g/	8b-\L
.	.	.	.	8dd\
4C/	4C/	.	4e/	8cc\
.	.	.	.	8b-\J
=14	=14	=14	=14	=14
4.F\	4.F\	4.A/	4c/	2a/
.	.	.	4f/	.
8D\	8D\	8A/	.	.
2G\	2G\	8B-/L	4d/	2r
.	.	8d/	.	.
.	.	8c/	[4g/	.
.	.	8B-/J	.	.
=15	=15	=15	=15	=15
4.E\	4.E\	2c\	8g/L]	4r
.	.	.	8f/J	.
.	.	.	4e/	2cc\
8E\	8E\	.	.	.
2F\	8F\L	2A/	2c/	.
.	8A\	.	.	.
.	8G\	.	.	[4ff\
.	8F\J	.	.	.
=16	=16	=16	=16	=16
4.B-\	4.B-\	4.d\	2r	8ff\L]
.	.	.	.	8ee\J
.	.	.	.	4.dd\
8A\	8A\	8c\	.	.
4.G\	4.G\	2B-/	4d/	.
.	.	.	.	8cc\
.	.	.	4g/	4b-\
8GG/	8GG/	.	.	.
=17	=17	=17	=17	=17
4.C/	4.C/	8r	4.e/	4g/
.	.	8G/	.	.
.	.	4.A/	.	4cc\
8AA/	8AA/	.	8c/	.
4.D\	4.D\	.	4.f/	4a/
.	.	8F/	.	.
.	.	[4B-/	.	4dd\
8BB-/	8BB-/	.	8d/	.
=18	=18	=18	=18	=18
4.E-\	4.E-\	8B-/L]	4.g/	8r
.	.	8G/J	.	8b-\
.	.	4.c\	.	4ee-\
8C/	8C/	.	8g/	.
4.F\	4.F\	.	2a/	8r
.	.	8A/	.	8cc\
.	.	[4d\	.	4ff\
8D\	8D\	.	.	.
=19	=19	=19	=19	=19
4G\	4G\	8d\L]	8r	4dd\
.	.	8B-\J	8d/	.
4E-\	4E-\	4.c\	4.g/	4ee-\
4.F\	4.F\	.	.	4cc\
.	.	8A/	8f/	.
.	.	4d\	[4f/	4a/
8D\	8D\	.	.	.
=20	=20	=20	=20	=20
4G\	4G\	8Bn/L	4f/]	1g
.	.	8G/J	.	.
4C/	4C/	2c\	4e-/	.
2G\	2G\	.	2d/	.
.	.	4B/	.	.
=21	=21	=21	=21	=21
1C	1C	1c	2e/	1g
.	.	.	4r	.
.	.	.	[4c/	.
=22	=22	=22	=22	=22
1G	2r	2r	4c/]	4r
.	.	.	8B-/L	2dd\
.	.	.	8A/J	.
.	2G\	4r	2B-/	.
.	.	[4d\	.	8b-/L
.	.	.	.	8a/J
=23	=23	=23	=23	=23
1E-	1E-	4d\]	2r	4g/
.	.	8c/L	.	2ee-\
.	.	8B-/J	.	.
.	.	2c\	4r	.
.	.	.	[4g/	8dd\L
.	.	.	.	8cc\J
=24	=24	=24	=24	=24
2.D\	2.D\	2B-/	4g/]	2dd\
.	.	.	8f/L	.
.	.	.	8e/J	.
.	.	4A/	[2f/	4r
8C/L	8C/L	[4B-/	.	[4dd\
8BB-/J	8BB-/J	.	.	.
=25	=25	=25	=25	=25
1F	1F	4B-/]	2f/]	4dd\]
.	.	8A/L	.	8cc\L
.	.	8G/J	.	8b-\J
.	.	2A/	2f/	2cc\
=26	=26	=26	=26	=26
*M3/2	*M3/2	*M3/2	*M3/2	*M3/2
2BB-/	2BB-/	1.B-	1f	1dd
2BB-/	2BB-/	.	.	.
2E-\	2E-\	.	2g/	2r
=27	=27	=27	=27	=27
2.D\	2.D\	1.r	1f	1.r
4E\	4E\	.	.	.
2F\	2F\	.	2d/	.
=28	=28	=28	=28	=28
1C	1.C	2G/	2.e-/	1.r
.	.	2G/	.	.
.	.	.	4f/	.
2c\	.	2c\	2e-/	.
=29	=29	=29	=29	=29
2.B-\	1.r	2.B-/	1d	2g/
.	.	.	.	2g/
4c\	.	4c\	.	.
2A\	.	2A/	2c/	2cc\
=30	=30	=30	=30	=30
1G	1.r	2.G/	1.d	2.b-\
.	.	4A/	.	4cc\
2BB-/	.	2B-/	.	2dd\
=31	=31	=31	=31	=31
1C	1.r	2.c\	1.r	1ee
.	.	4d\	.	.
2E-\	.	2e-\	.	2cc\
=32	=32	=32	=32	=32
1BB-	1.r	1B-	2d/	1dd
.	.	.	2d/	.
2E-\	.	2e-\	2g/	2cc\
=33	=33	=33	=33	=33
1D	1.r	1d	2.f/	1dd
.	.	.	4g/	.
2D\	.	2d\	2a/	2ff\
=34	=34	=34	=34	=34
2E-\	1.r	2e-\	1g	1b-
2D\	.	2d\	.	.
2C/	.	2c\	2g/	2cc\
=35	=35	=35	=35	=35
1D	2D\	1d	1f#	1a
.	2D\	.	.	.
2G\	2G\	2d\	2g/	2b-\
=36	=36	=36	=36	=36
1F	2.F\	1.f	1a	1cc
.	4G\	.	.	.
2A\	2A\	.	2a/	2cc\
=37	=37	=37	=37	=37
2B-\	2B-\	1.r	2f/	1b-
2BB-/	2BB-/	.	2d/	.
2C/	2C/	.	2e/	2r
=38	=38	=38	=38	=38
2D\	2D\	2A/	1.f	1.r
2C/	2C/	2A/	.	.
2BB-/	2BB-/	2d\	.	.
=39	=39	=39	=39	=39
1E-	1E-	2.G/	1.r	1.r
.	.	4A/	.	.
2D\	2D\	2B-/	.	.
=40	=40	=40	=40	=40
1C	2.C/	1A	1.r	1.r
.	4D\	.	.	.
2E-\	2E-\	2G/	.	.
=41	=41	=41	=41	=41
1D	1D	2F/	2d/	1.r
.	.	1B-	2d/	.
2E\	2E\	.	2g/	.
=42	=42	=42	=42	=42
1F	1F	2.A/	2.c/	1.r
.	.	4Bn/	4d/	.
2C/	2C/	2c\	2e-/	.
=43	=43	=43	=43	=43
2G\	2G\	1Bn	1d	1.r
2F\	2F\	.	.	.
2E\	2E\	2c#\	2e/	.
=44	=44	=44	=44	=44
1D	1D	2.d\	1f	2a/
.	.	.	.	2a/
.	.	4c\	.	.
2D\	2D\	2Bn/	2f/	2dd\
=45	=45	=45	=45	=45
1C	1C	1c	1e-	2.g/
.	.	.	.	4a/
2BB-/	2BB-/	2F/	2d/	2b-\
=46	=46	=46	=46	=46
1FF	1FF	1F	2.c/	1a
.	.	.	4d/	.
2C/	2C/	2G/	2e-/	2g/
=47	=47	=47	=47	=47
2.D\	2.D\	1B-	1d	1f
4E\	4E\	.	.	.
2F\	2F\	2A/	2c/	2f/
=48	=48	=48	=48	=48
*met(C)	*met(C)	*met(C)	*met(C)	*met(C)
*M4/4	*M4/4	*M4/4	*M4/4	*M4/4
2BB-/	2BB-/	2B-/	2d/	2f/
4r	4r	4r	4r	4r
4B-\	4B-\	4d\	4f/	4b-\
=49	=49	=49	=49	=49
4.B-\	4.B-\	4.d\	4.f/	4.dd\
8F\	8F\	8c\	8a/	8ff\
4c\	4c\	4c\	4g/	4ee-\
4G\	4G\	4Bn/	4g/	4dd\
=50	=50	=50	=50	=50
2C/	2C/	2c\	2e/	2cc\
4r	4r	4r	4r	4r
4F\	4F\	4c\	4f/	4a/
=51	=51	=51	=51	=51
4.BB-/	4.BB-/	4.B-/	4.f/	4.dd\
8F\	8F\	8A/	8a/	8cc\
4G\	4G\	4B-/	4.g/	4b-\
4C/	4C/	4A/	.	4cc\
.	.	.	16f/LL	.
.	.	.	16e/JJ	.
=52	=52	=52	=52	=52
2D\	2D\	2A/	2f#/	2a/
2GG/	2GG/	2G/	2g/	2bn\
=53	=53	=53	=53	=53
*clefC4	*	*	*	*
2c\	1r	2r	4r	4cc\
.	.	.	4c/	8g/L
.	.	.	.	8b-/J
4f\	.	4r	2f/	8a\L
.	.	.	.	8cc\
4F/	.	4F/	.	8ff\
.	.	.	.	8ee\J
=54	=54	=54	=54	=54
4.B-\	2r	4.B-/	8r	2dd\
.	.	.	8d/L	.
.	.	.	8g/	.
8B-\	.	8B-/	8f/J	.
4c\	4r	4c\	2e/	2cc\
4C/	4C/	8G/L	.	.
.	.	8B-/J	.	.
=55	=55	=55	=55	=55
*clefF4	*	*	*	*
4F\	4F\	4A/	8r	2cc\
.	.	.	8c/L	.
4F\	4F\	4c\	8f/	.
.	.	.	8e/J	.
4G\	4G\	4c\	4d/	2r
4GG/	4GG/	4Bn/	8g/L	.
.	.	.	8f/J	.
=56	=56	=56	=56	=56
2C/	2C/	4c\	2e/	8r
.	.	.	.	8g/L
.	.	4c\	.	8cc/
.	.	.	.	8b-/J
2F\	2r	4.f\	4r	2a/
.	.	.	4F/	.
.	.	8f\	.	.
=57	=57	=57	=57	=57
4C/	1r	4.e-\	4c/	2g/
8G\L	.	.	8G/L	.
8B-\J	.	8d\	8B-/J	.
2A\	.	2c\	2A/	8r
.	.	.	.	8cc\L
.	.	.	.	8ff\
.	.	.	.	8ee\J
=58	=58	=58	=58	=58
2B-\	2r	2B-/	8B-/L	8.dd\L
.	.	.	8g/	.
.	.	.	.	16cc\Jk
.	.	.	8d/	8b-/L
.	.	.	8f/J	8a/J
4c\	4c\	4c\	4e/	2g/
8G\L	8G\L	4B-/	4d/	.
8B-\J	8B-\J	.	.	.
=59	=59	=59	=59	=59
4F\	8F\L	4c\	2f/	4a/
.	8F\	.	.	.
8E\L	8E\	4d\	.	4bn\
8D\J	8D\J	.	.	.
4.C/	4.C/	4G/	2e/	4cc\
.	.	[4G/	.	4g/
8BB-/	8BB-/	.	.	.
=60	=60	=60	=60	=60
2AA/	2AA/	4G/]	2r	4.cc\
.	.	4F#/	.	.
.	.	.	.	8cc\
2GG/	2GG/	2G/	4g/	2b-\
.	.	.	8d/L	.
.	.	.	8f/J	.
=61	=61	=61	=61	=61
2C/	4r	8r	2e/	2g/
.	.	8G/L	.	.
.	4C/	8c/	.	.
.	.	8B-/J	.	.
4.F\	4.F\	2A/	4c/	2a/
.	.	.	4c/	.
8F\	8F\	.	.	.
=62	=62	=62	=62	=62
4E\	4E\	4G/	4.g/	1r
8C\L	8C\L	2c\	.	.
8E\J	8E\J	.	8g/	.
2D\	2D\	.	4f/	.
.	.	4Bn/	8d/L	.
.	.	.	8f/J	.
=63	=63	=63	=63	=63
2C/	2C/	2.c\	2e/	4cc\
.	.	.	.	8g/L
.	.	.	.	8b-/J
2F\	2F\	.	2f/	8a\L
.	.	.	.	8cc\
.	.	4A/	.	8ff\
.	.	.	.	8ee\J
=64	=64	=64	=64	=64
4G\	4G\	2B-/	2r	4dd\
4E-\	4E-\	.	.	8ee-\L
.	.	.	.	8dd\J
2F\	2F\	4.A/	4c/	2cc\
.	.	.	8f/L	.
.	.	8A/	8e/J	.
=65	=65	=65	=65	=65
2BB-/	2BB-/	4.B-/	8d/L	2b-\
.	.	.	8g/	.
.	.	.	8d/	.
.	.	8A/	8f/J	.
4C/	4C/	4G/	4e/	2r
4AA/	4AA/	4F/	[4f/	.
=66	=66	=66	=66	=66
4BB-/	4BB-/	2G/	4f/]	2r
4C/	4C/	.	4e/	.
2F\	2F\	2A/	2f/	4cc\
.	.	.	.	8a\L
.	.	.	.	8dd\J
=67	=67	=67	=67	=67
2F\	4r	1r	8r	4.cc\
.	.	.	8c/L	.
.	4F\	.	8f/	.
.	.	.	8e/J	8cc\
4.B-\	4.B-\	.	4.d/	8dd\L
.	.	.	.	8ee\
.	.	.	.	8ff\
8B-\	8B-\	.	8d/	8dd\J
=68	=68	=68	=68	=68
4A\	4A\	2r	8e/L	8cc\L
.	.	.	8f#/	8dd\J
4G\	4G\	.	8g/	4b-\
.	.	.	8e/J	.
2F\	2F\	4c\	2fn/	2a/
.	.	8A/L	.	.
.	.	8d/J	.	.
=69	=69	=69	=69	=69
2BB-/	4r	4.B-/	8r	2r
.	.	.	8d/L	.
.	4BB-/	.	8g/	.
.	.	8A/	8f/J	.
4.C/	4.C/	2G/	4e/	8r
.	.	.	.	8g/L
.	.	.	4e/	8cc/
8C/	8C/	.	.	8b-/J
=70	=70	=70	=70	=70
2D\	8D/L	[2F/	4.f/	2a/
.	8AA/	.	.	.
.	8D/	.	.	.
.	8C/J	.	8e/	.
2BB-/	2BB-/	8F/L]	2d/	8r
.	.	8D/	.	8f/L
.	.	8G/	.	8b-/
.	.	8F/J	.	8a/J
=71	=71	=71	=71	=71
2C/	4C/	4E/	2r	8g/L
.	.	.	.	8cc/
.	4C/	2c\	.	8g/
.	.	.	.	8b-/J
2FF/	4.F\	.	8r	4a/
.	.	.	8f/L	.
.	.	[4A/	8c/	4f/
.	8F\	.	8d/J	.
=72	=72	=72	=72	=72
4.AA/	4.AA/	4A/]	4e/	1cc
.	.	4A/	2f/	.
8BB-/	8BB-/	.	.	.
2C/	2C/	2G/	.	.
.	.	.	4e/	.
=73	=73	=73	=73	=73
0FF	0FF	0A	0f	0cc
==	==	==	==	==
*-	*-	*-	*-	*-
!!!ENC: Craig Stuart Sapp
!!!END: 2004/12/14/
